X:1
T: Felix the Wrestler
C:
R:Jig
Q:180
K:A
M:6/8
L:1/16
e2|c4A2 A2c2A2|e2c2A2 A2B2=c2|B4=G2 G2B2G2|d2B2G2 B2c2d2|c4A2 A2c2A2|e2c2A2 A2B2c2|d2e2d2 B2c2d2|e2c2A2 A4e2|
c4A2 A2c2A2|e2c2A2 A2B2=c2|B4=G2 G2B2G2|d2B2G2 B2c2d2|c4A2 A2c2A2|e2c2A2 A2B2c2|d2e2d2 B2c2d2|e2c2A2 A4d2|
c4a2 a2g2a2|e2f2e2 e2d2c2|B4=g2 g2f2g2|d2e2d2 d2c2B2|c4a2 a2g2a2|e2f2e2 e2d2c2|d2e2d2 B2c2d2|e2c2A2 A4d2|
c4a2 a2g2a2|e2f2e2 e2d2c2|B4=g2 g2f2g2|d2e2d2 d2c2B2|c2B2A2 d2c2B2|e2d2c2 f2e2d2|c2B2A2 B2c2d2|e2c2A2 A4||
